starz.svg

<svg viewBox="0 0 24 24" xmlns="http://www.w3.org/2000/svg"><path d="M4.46456 10.81L2.94144 10.81C2.94144 10.5533 2.6934 10.3918 2.29636 10.3918C1.84431 10.3918 1.65196 10.602 1.65196 10.8058C1.65196 11.6474 4.71471 10.8154 4.71471 13.0301C4.71471 14.1867 3.76707 14.7755 2.38297 14.7755C0.90174 14.7755 0 14.1198 0 13.0101L1.60184 13.0101C1.60184 13.3501 1.88389 13.5306 2.37612 13.5306C2.77141 13.5306 3.12839 13.4131 3.12839 13.0905C3.12839 12.2348 0.133012 13.0481 0.133012 10.8228C0.133012 9.89625 0.965399 9.22451 2.32259 9.22451C3.6732 9.22451 4.46456 9.86459 4.46456 10.81ZM10.3451 9.40464L8.27712 14.6271L9.94934 14.6271L10.1377 14.0595L11.9593 14.0595L12.1477 14.6271L13.82 14.6271L11.752 9.40464L10.3451 9.40464ZM11.0485 11.3151L11.6119 13.0125L10.4852 13.0125L11.0485 11.3151ZM14.0797 9.40459L14.0797 14.6271L15.6554 14.6271L15.6554 12.431L16.9643 14.6271L18.8335 14.6271L17.4961 12.6943C18.0156 12.47 18.502 11.9538 18.502 11.1201C18.502 9.90178 17.5442 9.40464 16.3027 9.40464L14.0797 9.40459ZM15.6554 10.6922L16.3275 10.6922C16.6488 10.6922 16.9342 10.81 16.9342 11.2032C16.9342 11.5964 16.6562 11.7142 16.3275 11.7142L15.6554 11.7142L15.6554 10.6922ZM23.7677 9.40462L21.5092 13.1983L24 13.1983L23.2057 14.6271L18.9604 14.6271L21.2162 10.8334L19.1486 10.8334L19.1486 9.40462L23.7677 9.40462ZM9.10523 9.40462L9.10523 10.8334L7.64294 10.8334L7.64294 14.6271L6.06728 14.6271L6.06728 10.8334L4.62543 10.8334L4.62543 9.40462L9.10523 9.40462Z" fill="#006576"/></svg>

<svg viewBox="0 0 24 24" xmlns="http://www.w3.org/2000/svg"><path d="M4.465 10.81H2.94c0-.257-.248-.418-.645-.418-.452 0-.644.21-.644.414 0 .841 3.063.01 3.063 2.224 0 1.157-.948 1.745-2.332 1.745C.902 14.775 0 14.12 0 13.01h1.602c0 .34.282.52.774.52.395 0 .752-.117.752-.44 0-.855-2.995-.042-2.995-2.267 0-.927.832-1.598 2.19-1.598 1.35 0 2.142.64 2.142 1.585Zm5.88-1.405-2.068 5.222H9.95l.189-.568h1.821l.189.568h1.672l-2.068-5.222h-1.407Zm.704 1.91.563 1.697h-1.127l.564-1.697Zm3.03-1.91v5.222h1.576v-2.196l1.31 2.196h1.869l-1.338-1.933c.52-.224 1.006-.74 1.006-1.574 0-1.218-.958-1.715-2.2-1.715H14.08Zm1.576 1.287h.673c.32 0 .606.118.606.511s-.278.511-.607.511h-.672v-1.022Zm8.113-1.287-2.259 3.793H24l-.794 1.43H18.96l2.256-3.795H19.15V9.405h4.619Zm-14.663 0v1.428H7.643v3.794H6.067v-3.794H4.625V9.405h4.48Z" fill="#006576"/></svg>
